src/assets/bg_delegate_modal.svg

<svg width="451" height="512" viewBox="0 0 451 512" fill="none" xmlns="http://www.w3.org/2000/svg">
<path d="M416.281 0.342529H228.07V6.01253H416.281C431.961 6.01253 444.72 18.7725 444.72 34.4525V477.863C444.72 493.543 431.961 506.303 416.281 506.303H34.1105C18.4305 506.303 5.67049 493.543 5.67049 477.863V34.4525C5.67049 18.7725 18.4305 6.01253 34.1105 6.01253H228.211V0.342529H34.1105C15.2705 0.342529 0.000488281 15.6125 0.000488281 34.4525V477.863C0.000488281 496.703 15.2705 511.973 34.1105 511.973H416.281C435.121 511.973 450.391 496.703 450.391 477.863V34.4525C450.401 15.6125 435.121 0.342529 416.281 0.342529Z" fill="url(#paint0_linear_2001_13632)"/>
<path d="M416.321 4.59253H228.071V6.01253H416.321C432.001 6.01253 444.761 18.7725 444.761 34.4525V477.863C444.761 493.543 432.001 506.303 416.321 506.303H34.1505C18.4705 506.303 5.71053 493.543 5.71053 477.863V34.4525C5.71053 18.7725 18.4705 6.01253 34.1505 6.01253H228.211V4.59253H34.1505C17.6905 4.59253 4.29053 17.9825 4.29053 34.4525V477.863C4.29053 494.323 17.6905 507.723 34.1505 507.723H416.321C432.781 507.723 446.181 494.333 446.181 477.863V34.4525C446.181 17.9925 432.791 4.59253 416.321 4.59253Z" fill="url(#paint1_linear_2001_13632)"/>
<path d="M416.321 0.342529H228.071V1.76253H416.321C434.351 1.76253 449.011 16.4325 449.011 34.4525V477.863C449.011 495.893 434.341 510.553 416.321 510.553H34.1505C16.1205 510.553 1.46053 495.883 1.46053 477.863V34.4525C1.46053 16.4225 16.1305 1.76253 34.1505 1.76253H228.211V0.342529H34.1505C15.3105 0.342529 0.0405273 15.6125 0.0405273 34.4525V477.863C0.0405273 496.703 15.3105 511.973 34.1505 511.973H416.321C435.161 511.973 450.431 496.703 450.431 477.863V34.4525C450.431 15.6125 435.161 0.342529 416.321 0.342529Z" fill="url(#paint2_linear_2001_13632)"/>
<defs>
<linearGradient id="paint0_linear_2001_13632" x1="99.1541" y1="-94.1425" x2="351.243" y2="446.463" gradientUnits="userSpaceOnUse">
<stop stop-color="#FFDC00"/>
<stop offset="0.2469" stop-color="#FFFF6B"/>
<stop offset="0.5953" stop-color="#FFDC00"/>
<stop offset="1" stop-color="#FFA500"/>
</linearGradient>
<linearGradient id="paint1_linear_2001_13632" x1="100.993" y1="-90.2803" x2="349.48" y2="442.601" gradientUnits="userSpaceOnUse">
<stop stop-color="#DA8F00"/>
<stop offset="0.4047" stop-color="#FFDC00"/>
<stop offset="1" stop-color="#FFFF8F"/>
</linearGradient>
<linearGradient id="paint2_linear_2001_13632" x1="99.1918" y1="-94.1425" x2="351.281" y2="446.463" gradientUnits="userSpaceOnUse">
<stop stop-color="#FFFF8F"/>
<stop offset="0.5953" stop-color="#FFDC00"/>
<stop offset="1" stop-color="#DA8F00"/>
</linearGradient>
</defs>
</svg>

<svg width="451" height="512" fill="none" xmlns="http://www.w3.org/2000/svg"><path d="M416.281.343H228.07v5.67h188.211c15.68 0 28.439 12.76 28.439 28.44v443.41c0 15.68-12.759 28.44-28.439 28.44H34.111c-15.68 0-28.44-12.76-28.44-28.44V34.453c0-15.68 12.76-28.44 28.44-28.44h194.1V.343h-194.1C15.27.343 0 15.613 0 34.453v443.41c0 18.84 15.27 34.11 34.11 34.11h382.17c18.84 0 34.11-15.27 34.11-34.11V34.453c.01-18.84-15.27-34.11-34.11-34.11z" fill="url(#a)"/><path d="M416.321 4.593h-188.25v1.42h188.25c15.68 0 28.44 12.76 28.44 28.44v443.41c0 15.68-12.76 28.44-28.44 28.44H34.151c-15.68 0-28.44-12.76-28.44-28.44V34.453c0-15.68 12.76-28.44 28.44-28.44h194.06v-1.42H34.151c-16.46 0-29.86 13.39-29.86 29.86v443.41c0 16.46 13.4 29.86 29.86 29.86h382.17c16.46 0 29.86-13.39 29.86-29.86V34.453c0-16.46-13.39-29.86-29.86-29.86z" fill="url(#b)"/><path d="M416.321.343h-188.25v1.42h188.25c18.03 0 32.69 14.67 32.69 32.69v443.41c0 18.03-14.67 32.69-32.69 32.69H34.151c-18.03 0-32.69-14.67-32.69-32.69V34.453c0-18.03 14.67-32.69 32.69-32.69h194.06V.343H34.151C15.31.343.04 15.613.04 34.453v443.41c0 18.84 15.27 34.11 34.11 34.11h382.17c18.84 0 34.11-15.27 34.11-34.11V34.453c0-18.84-15.27-34.11-34.11-34.11z" fill="url(#c)"/><defs><linearGradient id="a" x1="99.154" y1="-94.142" x2="351.243" y2="446.463" gradientUnits="userSpaceOnUse"><stop stop-color="#FFDC00"/><stop offset=".247" stop-color="#FFFF6B"/><stop offset=".595" stop-color="#FFDC00"/><stop offset="1" stop-color="orange"/></linearGradient><linearGradient id="b" x1="100.993" y1="-90.28" x2="349.48" y2="442.601" gradientUnits="userSpaceOnUse"><stop stop-color="#DA8F00"/><stop offset=".405" stop-color="#FFDC00"/><stop offset="1" stop-color="#FFFF8F"/></linearGradient><linearGradient id="c" x1="99.192" y1="-94.142" x2="351.281" y2="446.463" gradientUnits="userSpaceOnUse"><stop stop-color="#FFFF8F"/><stop offset=".595" stop-color="#FFDC00"/><stop offset="1" stop-color="#DA8F00"/></linearGradient></defs></svg>
